resources/haticons/SVG/grid_on.svg

<svg height="24" viewBox="0 0 24 24" width="24" xmlns="http://www.w3.org/2000/svg"><path d="m20.016 8.016v-4.031h-4.031v4.031zm0 6v-4.031h-4.031v4.031zm0 6v-4.031h-4.031v4.031zm-6-12v-4.031h-4.031v4.031zm0 6v-4.031h-4.031v4.031zm0 6v-4.031h-4.031v4.031zm-6-12v-4.031h-4.031v4.031zm0 6v-4.031h-4.031v4.031zm0 6v-4.031h-4.031v4.031zm12-18q.797 0 1.383.586t.586 1.383v16.031q0 .797-.586 1.383t-1.383.586h-16.031q-.797 0-1.383-.586t-.586-1.383v-16.031q0-.797.586-1.383t1.383-.586z"/></svg>

<svg height="24" width="24" xmlns="http://www.w3.org/2000/svg"><path d="M20.016 8.016V3.985h-4.031v4.031zm0 6V9.985h-4.031v4.031zm0 6v-4.031h-4.031v4.031zm-6-12V3.985H9.985v4.031zm0 6V9.985H9.985v4.031zm0 6v-4.031H9.985v4.031zm-6-12V3.985H3.985v4.031zm0 6V9.985H3.985v4.031zm0 6v-4.031H3.985v4.031zm12-18q.797 0 1.383.586t.586 1.383v16.031q0 .797-.586 1.383t-1.383.586H3.985q-.797 0-1.383-.586t-.586-1.383V3.985q0-.797.586-1.383t1.383-.586z"/></svg>
